source/img/icon-phone.svg

<svg width="22" height="24" viewBox="0 0 22 24" fill="none" xmlns="http://www.w3.org/2000/svg">
<path d="M3.45616 6.74199C3.37161 5.54391 3.63734 4.36374 4.34096 3.41452C4.95096 2.554 5.74517 2.08404 6.70245 1.8094C7.50874 1.57018 8.03721 1.86329 8.26974 2.75972C8.60192 4.09991 9.07604 5.44018 9.24817 6.85129C9.30253 7.47252 8.90089 8.35089 8.46604 8.80328C7.37589 9.87655 7.60238 10.6576 8.42982 12.282C8.6865 12.8057 9.09418 13.7111 9.88839 14.9096C10.7158 16.1169 11.1537 16.7649 12.2167 16.2152C13.3974 15.6212 14.2581 16.0032 15.1489 16.9621C15.7529 17.6546 16.4172 18.2495 17.0212 18.942C17.8939 19.9718 17.8547 20.6818 17.1722 21.4091C15.9431 22.7486 13.9138 23.1913 12.4039 22.2943C11.5705 21.8058 10.74 21.1664 10.0787 20.4206C7.16453 17.1002 5.06272 13.2388 3.79741 8.88089C3.59508 8.14421 3.50146 7.39872 3.45616 6.74199Z" stroke="#0AD9C6" stroke-width="2" stroke-miterlimit="10"/>
</svg>

<svg width="22" height="24" fill="none" xmlns="http://www.w3.org/2000/svg"><path d="M3.5 6.7a5 5 0 01.8-3.3c.7-.8 1.4-1.3 2.4-1.6.8-.2 1.3 0 1.6 1 .3 1.3.8 2.6 1 4a3 3 0 01-.8 2c-1.1 1-.9 1.9 0 3.5.2.5.6 1.4 1.4 2.6.8 1.2 1.3 1.9 2.3 1.3 1.2-.6 2-.2 3 .8l1.8 2c.9 1 .9 1.7.2 2.4-1.3 1.3-3.3 1.8-4.8.9a9.7 9.7 0 01-2.3-1.9A30 30 0 013.8 9a11 11 0 01-.3-2.2z" stroke="#0AD9C6" stroke-width="2" stroke-miterlimit="10"/></svg>
